X: 6984
T: Chicago, The
R: reel
M: 4/4
K: Adorian
|:cded cAGE|G2GE G2(3Bcd|ec~c2 acgc|eaag efed|
cded cAGE|G2GE GABd|eaag efed|cdBc A3B:|
|:cdef g2ef|gedc BG G2|(3Bcd ef ged2|eaag a2a2|
(3Bcd ef g3e|a3f g3e|f3d efed|cdBc A3B:|

